!!!OTL@@FUR: E m&ecirc; mari m'&egrave; l'&agrave; dite... 
!!!OTL@IT: Mia madre me lo ha detto
!!!OTL@EN: My mother told me
**kern
*clefG2
*k[b-]
*F:
*M2/4
*MM66
*>[A,B,C,B,D]
*>A
8a
8b-
=1:|!
*>B
8dd
8cc
8a
8b-
=2
8dd
8cc
8b-
8a
=3
16cc
16b-
8a
[4b-
=4
4b-]
8g
8a
=5
8cc
8b-
8g
8a
=6
8cc
8b-
8a
8g
=7
[2a
=8
4a]
8a
8b-
=9
8dd
8cc
8a
8b-
=10
8dd
8cc
8b-
8a
=11
16cc
16b-
8a
[4b-
=12
4b-]
8g
8a
=13
8cc
8b-
8g
8a
=14
8cc
8b-
8dd
8ee
=15||
*>C
[2ff
=16
4ff]
8a
8b-
=17:|!
*>D
[2ff
=18
4ff]
4r
==
*-
!!!ARE: Friuli
!!!ENC: Kelly Leistikow
!!!END: 2002/03/07
!!!ref: @{OTL@@FUR}/@{OTL@EN}
